Numix-Circle/48x48/apps/xfce4-panel.svg

<svg xmlns="http://www.w3.org/2000/svg" xmlns:xlink="http://www.w3.org/1999/xlink" width="48" viewBox="0 0 13.546667 13.546667" height="48">
 <defs>
  <linearGradient id="0">
   <stop stop-color="#cd3b27"/>
   <stop offset="1" stop-color="#de6352"/>
  </linearGradient>
  <linearGradient gradientTransform="matrix(1.10525 0 0 1.10525 -134.27874 -295.76183)" xlink:href="#0" id="1" y1="279.1" y2="268.33" gradientUnits="userSpaceOnUse" x2="0"/>
 </defs>
 <g fill-rule="evenodd">
  <rect width="12.982" x="0.282" y="0.282" rx="6.491" height="12.982" opacity="0.5" fill="#fff"/>
  <rect width="11.853" x="0.847" y="0.847" rx="5.926" height="11.853" fill="url(#1)"/>
 </g>
 <path d="M 12.96875 12 C 12.425014 12 12 12.5199 12 13.15625 L 12 34.84375 C 12 35.4801 12.425014 36 12.96875 36 L 35.03125 36 C 35.574986 36 36 35.4801 36 34.84375 L 36 13.15625 C 36 12.5199 35.574986 12 35.03125 12 L 12.96875 12 z M 16.0625 17 C 16.178405 17.018274 16.499907 17.161688 16.75 17.3125 C 17.083507 17.513526 18.007494 17.908955 18.28125 17.96875 C 18.988715 18.123362 20.621377 19.016367 21.6875 20.21875 C 21.821511 20.362626 22.176183 19.754765 23 19.90625 C 23.236856 19.930522 25.144383 20.475048 25.9375 20.3125 C 26.208655 20.127986 26.209292 19.629295 26.46875 19.40625 C 26.46875 19.217367 26.313935 18.597893 26.3125 18.46875 C 26.303996 18.019205 26.700148 17.787513 26.8125 17.8125 C 26.929801 17.844921 27.110544 17.823742 27.53125 18.9375 C 27.655996 19.145761 27.86355 19.230115 27.84375 19.03125 C 27.611692 18.254342 27.421135 17.426805 27.96875 17.34375 C 28.044598 17.344235 28.585698 17.053007 28.71875 18.21875 C 28.741746 18.391015 28.740539 18.888079 28.75 19.0625 C 28.768 19.213335 30.152319 19.017421 31.5 19.96875 C 31.657114 20.070797 32.306714 20.794424 31.65625 21.375 C 31.219935 21.765558 29.345403 22.778993 29.21875 22.875 C 29.146608 22.928426 29.060134 23.149796 29.15625 23.34375 C 29.275858 23.58574 29.324295 23.504911 29.71875 24.03125 C 30.113158 24.557643 30.031715 24.7971 29.40625 24.625 C 29.197195 24.567471 28.658156 24.25956 28.4375 24.34375 C 28.334191 24.383134 28.947548 25.028307 29.03125 25.28125 C 29.308656 26.082011 28.374808 25.645438 28.03125 25.46875 C 27.687697 25.292115 27.086554 24.918446 26.875 24.90625 C 26.464042 25.096482 24.254943 25.317631 22.28125 24.8125 C 22.161094 24.847579 21.167552 25.927519 21.09375 25.96875 C 20.475636 26.179599 20.931947 25.193989 21.03125 24.78125 C 21.079759 24.578604 20.960899 24.677462 20.84375 24.75 C 20.788597 24.783999 20.420804 24.958539 20.1875 24.84375 C 19.954227 24.728956 20.670898 23.938297 20.75 23.8125 C 20.859207 23.664252 20.449679 22.27294 21.375 20.6875 C 21.280647 20.502718 20.07782 19.410298 19.1875 18.875 C 18.346182 18.357403 16.30505 17.349626 16.25 17.28125 C 16.161747 17.213468 15.899548 17.036431 16.03125 17.03125 C 16.01666 17.004564 16.023865 16.993909 16.0625 17 z M 31.25 18.28125 C 31.327446 18.199382 31.356323 19.510155 31.09375 19.5625 C 31.037702 19.573617 30.993546 18.552217 31.25 18.28125 z M 32 18.4375 C 32.091141 18.697728 31.45901 19.774758 31.40625 19.625 C 31.285316 19.281717 31.97098 18.354714 32 18.4375 z M 28.5 20.03125 C 28.423057 19.945332 28.407893 20.537472 28.65625 20.6875 C 28.896954 20.809734 29.24725 20.600982 29.1875 20.59375 C 28.667839 20.531581 28.5794 20.288455 28.5 20.03125 z M 29.9375 21.3125 C 29.672795 21.25562 28.879349 21.75945 28.9375 21.8125 C 29.019706 21.887514 30.063303 21.342236 29.9375 21.3125 z M 30.09375 21.65625 C 29.870795 21.638447 29.3481 22.259451 29.40625 22.3125 C 29.48851 22.387514 30.204502 21.665424 30.09375 21.65625 z " transform="scale(0.28222223,0.28222223)" fill="#dedede"/>
 <path d="M 3.6600695,10.16 C 3.506614,10.16 3.3866668,10.013274 3.3866668,9.8336809 l 0,-0.8025695 6.7733332,0 0,0.8025695 C 10.16,10.013274 10.040053,10.16 9.8865975,10.16 l -6.226528,0 z" fill="#2d2d2d"/>
</svg>

<svg viewBox="0 0 48 48"><defs><linearGradient id="1" gradientUnits="userSpaceOnUse" y1="15" x2="0" y2="11" gradientTransform="matrix(15.333333,0,0,11.5,414.99999,-125.5)"><stop/><stop offset="1" stop-opacity="0"/></linearGradient><clipPath id="clipPath-699188917"><g transform="translate(0,-1004.3622)"><path d="m -24 13 c 0 1.105 -0.672 2 -1.5 2 -0.828 0 -1.5 -0.895 -1.5 -2 0 -1.105 0.672 -2 1.5 -2 0.828 0 1.5 0.895 1.5 2 z" transform="matrix(15.333333,0,0,11.5,414.99999,878.8622)" fill="#1890d0"/></g></clipPath><clipPath id="clipPath-709135833"><g transform="translate(0,-1004.3622)"><path d="m -24 13 c 0 1.105 -0.672 2 -1.5 2 -0.828 0 -1.5 -0.895 -1.5 -2 0 -1.105 0.672 -2 1.5 -2 0.828 0 1.5 0.895 1.5 2 z" transform="matrix(15.333333,0,0,11.5,414.99999,878.8622)" fill="#1890d0"/></g></clipPath></defs><g><g transform="translate(0,-1004.3622)"><path d="m 25 1006.36 c -12.703 0 -23 10.298 -23 23 0 6.367 2.601 12.12 6.781 16.281 4.085 3.712 9.514 5.969 15.469 5.969 12.703 0 23 -10.297 23 -23 0 -5.954 -2.256 -11.384 -5.969 -15.469 -4.165 -4.181 -9.914 -6.781 -16.281 -6.781 z m 16.281 6.781 c 3.854 4.113 6.219 9.637 6.219 15.719 0 12.703 -10.297 23 -23 23 -6.081 0 -11.606 -2.364 -15.719 -6.219 4.16 4.144 9.883 6.719 16.219 6.719 12.703 0 23 -10.297 23 -23 0 -6.335 -2.575 -12.06 -6.719 -16.219 z" opacity="0.05"/><path d="m 41.28 1013.14 c 3.712 4.085 5.969 9.514 5.969 15.469 0 12.703 -10.297 23 -23 23 -5.954 0 -11.384 -2.256 -15.469 -5.969 4.113 3.854 9.637 6.219 15.719 6.219 12.703 0 23 -10.297 23 -23 0 -6.081 -2.364 -11.606 -6.219 -15.719 z" opacity="0.1"/><path transform="matrix(15.333333,0,0,11.5,415.24999,879.11222)" d="m -24 13 a 1.5 2 0 1 1 -3 0 1.5 2 0 1 1 3 0 z" opacity="0.2"/></g></g><g><g transform="translate(0,-1004.3622)"><path d="m -24 13 c 0 1.105 -0.672 2 -1.5 2 -0.828 0 -1.5 -0.895 -1.5 -2 0 -1.105 0.672 -2 1.5 -2 0.828 0 1.5 0.895 1.5 2 z" transform="matrix(15.333333,0,0,11.5,414.99999,878.8622)" fill="#de6352"/></g></g><g><path d="m 47 24 c 0 12.703 -10.297 23 -23 23 -12.703 0 -23 -10.297 -23 -23 0 -12.703 10.297 -23 23 -23 12.703 0 23 10.297 23 23 z" opacity="0.15" fill="url(#1)"/></g><g><g clip-path="url(#clipPath-699188917)"><g transform="translate(0,1)"><g opacity="0.1"><!-- color: #de6352 --><g><path d="m 12.969 12 c -0.543 0 -0.969 0.52 -0.969 1.156 l 0 21.688 c 0 0.637 0.426 1.156 0.969 1.156 l 22.06 0 c 0.547 0 0.969 -0.52 0.969 -1.156 l 0 -21.688 c 0 -0.637 -0.422 -1.156 -0.969 -1.156 m -18.965 5 c 0.117 0.02 0.438 0.16 0.688 0.313 c 0.336 0.203 1.258 0.598 1.531 0.656 c 0.707 0.156 2.34 1.047 3.406 2.25 c 0.133 0.145 0.488 -0.465 1.313 -0.313 c 0.238 0.023 2.145 0.57 2.938 0.406 c 0.273 -0.184 0.273 -0.684 0.531 -0.906 c 0 -0.188 -0.152 -0.809 -0.156 -0.938 c -0.008 -0.449 0.391 -0.684 0.5 -0.656 c 0.117 0.031 0.301 0.012 0.719 1.125 c 0.125 0.207 0.332 0.293 0.316 0.094 c -0.234 -0.777 -0.426 -1.605 0.125 -1.688 c 0.074 0 0.617 -0.293 0.75 0.875 c 0.02 0.172 0.02 0.668 0.031 0.844 c 0.016 0.152 1.398 -0.047 2.75 0.906 c 0.156 0.102 0.805 0.824 0.152 1.406 c -0.434 0.391 -2.309 1.402 -2.438 1.5 c -0.07 0.051 -0.156 0.273 -0.063 0.469 c 0.121 0.242 0.168 0.16 0.563 0.688 c 0.395 0.527 0.313 0.766 -0.313 0.594 c -0.207 -0.059 -0.746 -0.363 -0.969 -0.281 c -0.102 0.039 0.512 0.684 0.594 0.938 c 0.277 0.801 -0.656 0.363 -1 0.188 c -0.344 -0.176 -0.945 -0.547 -1.156 -0.563 c -0.41 0.191 -2.617 0.41 -4.594 -0.094 c -0.121 0.035 -1.113 1.117 -1.188 1.156 c -0.617 0.211 -0.16 -0.773 -0.063 -1.188 c 0.047 -0.203 -0.07 -0.105 -0.188 -0.031 c -0.055 0.035 -0.422 0.211 -0.656 0.094 c -0.234 -0.113 0.484 -0.906 0.563 -1.031 c 0.109 -0.148 -0.301 -1.539 0.625 -3.125 c -0.094 -0.184 -1.297 -1.277 -2.188 -1.813 c -0.84 -0.52 -2.883 -1.523 -2.938 -1.594 c -0.09 -0.066 -0.352 -0.246 -0.219 -0.25 c -0.016 -0.027 -0.008 -0.039 0.031 -0.031 m 15.188 1.281 c 0.078 -0.082 0.105 1.23 -0.156 1.281 c -0.055 0.012 -0.098 -1.012 0.156 -1.281 m 0.75 0.156 c 0.094 0.258 -0.539 1.336 -0.594 1.188 c -0.121 -0.344 0.566 -1.27 0.594 -1.188 m -3.5 1.594 c -0.074 -0.086 -0.09 0.504 0.156 0.656 c 0.242 0.121 0.59 -0.086 0.531 -0.094 c -0.52 -0.063 -0.609 -0.305 -0.688 -0.563 m 1.438 1.281 c -0.262 -0.059 -1.055 0.445 -1 0.5 c 0.082 0.074 1.129 -0.469 1 -0.5 m 0.156 0.344 c -0.223 -0.02 -0.746 0.602 -0.688 0.656 c 0.082 0.074 0.797 -0.648 0.688 -0.656 m 0 0" fill="#000" stroke="none" fill-rule="nonzero" fill-opacity="1"/><path d="m 12.969 36 c -0.543 0 -0.969 -0.52 -0.969 -1.156 l 0 -2.844 l 24 0 l 0 2.844 c 0 0.641 -0.426 1.156 -0.969 1.156 m -22.06 0" fill="#000" stroke="none" fill-rule="nonzero" fill-opacity="1"/></g></g></g></g></g><g><g clip-path="url(#clipPath-709135833)"><!-- color: #de6352 --><g><path d="m 12.969 12 c -0.543 0 -0.969 0.52 -0.969 1.156 l 0 21.688 c 0 0.637 0.426 1.156 0.969 1.156 l 22.06 0 c 0.547 0 0.969 -0.52 0.969 -1.156 l 0 -21.688 c 0 -0.637 -0.422 -1.156 -0.969 -1.156 m -18.965 5 c 0.117 0.02 0.438 0.16 0.688 0.313 c 0.336 0.203 1.258 0.598 1.531 0.656 c 0.707 0.156 2.34 1.047 3.406 2.25 c 0.133 0.145 0.488 -0.465 1.313 -0.313 c 0.238 0.023 2.145 0.57 2.938 0.406 c 0.273 -0.184 0.273 -0.684 0.531 -0.906 c 0 -0.188 -0.152 -0.809 -0.156 -0.938 c -0.008 -0.449 0.391 -0.684 0.5 -0.656 c 0.117 0.031 0.301 0.012 0.719 1.125 c 0.125 0.207 0.332 0.293 0.316 0.094 c -0.234 -0.777 -0.426 -1.605 0.125 -1.688 c 0.074 0 0.617 -0.293 0.75 0.875 c 0.02 0.172 0.02 0.668 0.031 0.844 c 0.016 0.152 1.398 -0.047 2.75 0.906 c 0.156 0.102 0.805 0.824 0.152 1.406 c -0.434 0.391 -2.309 1.402 -2.438 1.5 c -0.07 0.051 -0.156 0.273 -0.063 0.469 c 0.121 0.242 0.168 0.16 0.563 0.688 c 0.395 0.527 0.313 0.766 -0.313 0.594 c -0.207 -0.059 -0.746 -0.363 -0.969 -0.281 c -0.102 0.039 0.512 0.684 0.594 0.938 c 0.277 0.801 -0.656 0.363 -1 0.188 c -0.344 -0.176 -0.945 -0.547 -1.156 -0.563 c -0.41 0.191 -2.617 0.41 -4.594 -0.094 c -0.121 0.035 -1.113 1.117 -1.188 1.156 c -0.617 0.211 -0.16 -0.773 -0.063 -1.188 c 0.047 -0.203 -0.07 -0.105 -0.188 -0.031 c -0.055 0.035 -0.422 0.211 -0.656 0.094 c -0.234 -0.113 0.484 -0.906 0.563 -1.031 c 0.109 -0.148 -0.301 -1.539 0.625 -3.125 c -0.094 -0.184 -1.297 -1.277 -2.188 -1.813 c -0.84 -0.52 -2.883 -1.523 -2.938 -1.594 c -0.09 -0.066 -0.352 -0.246 -0.219 -0.25 c -0.016 -0.027 -0.008 -0.039 0.031 -0.031 m 15.188 1.281 c 0.078 -0.082 0.105 1.23 -0.156 1.281 c -0.055 0.012 -0.098 -1.012 0.156 -1.281 m 0.75 0.156 c 0.094 0.258 -0.539 1.336 -0.594 1.188 c -0.121 -0.344 0.566 -1.27 0.594 -1.188 m -3.5 1.594 c -0.074 -0.086 -0.09 0.504 0.156 0.656 c 0.242 0.121 0.59 -0.086 0.531 -0.094 c -0.52 -0.063 -0.609 -0.305 -0.688 -0.563 m 1.438 1.281 c -0.262 -0.059 -1.055 0.445 -1 0.5 c 0.082 0.074 1.129 -0.469 1 -0.5 m 0.156 0.344 c -0.223 -0.02 -0.746 0.602 -0.688 0.656 c 0.082 0.074 0.797 -0.648 0.688 -0.656 m 0 0" fill="#dedede" stroke="none" fill-rule="nonzero" fill-opacity="1"/><path d="m 12.969 36 c -0.543 0 -0.969 -0.52 -0.969 -1.156 l 0 -2.844 l 24 0 l 0 2.844 c 0 0.641 -0.426 1.156 -0.969 1.156 m -22.06 0" fill="#2d2d2d" stroke="none" fill-rule="nonzero" fill-opacity="1"/></g></g></g><g><path d="m 40.03 7.531 c 3.712 4.084 5.969 9.514 5.969 15.469 0 12.703 -10.297 23 -23 23 c -5.954 0 -11.384 -2.256 -15.469 -5.969 4.178 4.291 10.01 6.969 16.469 6.969 c 12.703 0 23 -10.298 23 -23 0 -6.462 -2.677 -12.291 -6.969 -16.469 z" opacity="0.1"/></g></svg>
